X: 18
T:Brighton Camp
R:32-bar reel
M:4/4
L:1/4
K:G
g/2f/2|:"G"ed/2c/2 BA|"G"BG "C"EE/2F/2|"G"GG G/2A/2B/2c/2|\
"G"dd/2c/2 "D7"Bg/2f/2|"G"ed/2c/2 BA|"G"BG "C"EG|"D7"F/2G/2A/2F/2 DE/2F/2|"G"G2 G:|
d/2c/2|: "G"Bd "D7"ef|"G"gd/2c/2 "D7"B/2A/2G|"G"B/2c/2d ef|"Am7"g2 "  D7"f g/2f/2|
"G"ed/2c/2 BA|"G"B/2A/2G/2F/2 "C"EG|"D7"F/2G/2A/2F/2 D/2E/2F/2D/2|"G"G2 G:|
